; HEADER_BLOCK_START
; generated by OrcaSlicer 2.3.0 on 2025-08-06 at 11:08:23
; total layer number: 7
;_GP_TOTAL_LAYER_NUMBER_PLACEHOLDER
; filament_density: 1.24
; filament_diameter: 1.75
; max_z_height: 1.40
; HEADER_BLOCK_END

; THUMBNAIL_BLOCK_START

;
; THUMBNAIL_BLOCK_END

; THUMBNAIL_BLOCK_START

;
; THUMBNAIL_BLOCK_END

; external perimeters extrusion width = 0.45mm
; perimeters extrusion width = 0.45mm
; infill extrusion width = 0.45mm
; solid infill extrusion width = 0.45mm
; top infill extrusion width = 0.40mm
; support material extrusion width = 0.38mm
; first layer extrusion width = 0.42mm

; EXECUTABLE_BLOCK_START
M73 P0 R20
M201 X500 Y500 Z100 E5000
M203 X500 Y500 Z10 E60
M204 P500 R1000 T500
M205 X8.00 Y8.00 Z0.40 E5.00 ; sets the jerk limits, mm/sec
;TYPE:Custom
G90 ; use absolute coordinates
M83 ; extruder relative mode
M104 S150 ; set temporary nozzle temp to prevent oozing during homing
M140 S60 ; set final bed temp
G4 S30 ; allow partial nozzle warmup
G28 ; home all axis and restore leveling
G1 Z50 F240
G1 X2.0 Y10 F3000
M73 P1 R19
M104 S220 ; set final nozzle temp
M190 S60 ; wait for bed temp to stabilize
M109 S220 ; wait for nozzle temp to stabilize
G1 Z0.28 F240
G92 E0
G1 X2.0 Y140 E10 F1500 ; prime the nozzle
M73 P2 R19
G1 X2.3 Y140 F5000
G92 E0
G1 X2.3 Y10 E10 F1200 ; prime the nozzle
G92 E0
G90
G21
M83 ; use relative distances for extrusion
; filament start gcode
M106 S0
;LAYER_CHANGE
;Z:0.2
;HEIGHT:0.2
;BEFORE_LAYER_CHANGE
;0.2
G92 E0

G1 E-.8 F1800
M73 P3 R19
;_SET_FAN_SPEED_CHANGING_LAYER
G1 Z.6 F9000
G1 X84.686 Y84.686
G1 Z.6
G1 Z.2
G1 E.8 F1800
;TYPE:Skirt
;WIDTH:0.42
G1 F3000
G1 X86.186 Y83.186 E.06518
G1 X88 Y82.434 E.06034
G1 X132 Y82.434 E1.352
G1 X133.814 Y83.186 E.06034
G1 X136.814 Y86.186 E.13036
G1 X137.566 Y88 E.06034
G1 X137.566 Y132 E1.352
G1 X136.814 Y133.814 E.06034
G1 X133.814 Y136.814 E.13036
G1 X132 Y137.566 E.06034
G1 X88 Y137.566 E1.352
G1 X86.186 Y136.814 E.06034
G1 X83.186 Y133.814 E.13036
G1 X82.434 Y132 E.06034
G1 X82.434 Y88 E1.352
G1 X83.186 Y86.186 E.06034
G1 X84.658 Y84.714 E.06395
G1 X84.924 Y84.981 F9000
G1 F3000
G1 X86.452 Y83.452 E.06641
G1 X88 Y82.811 E.05147
G1 X132 Y82.811 E1.352
G1 X133.548 Y83.452 E.05147
G1 X136.548 Y86.452 E.13036
G1 X137.189 Y88 E.05147
G1 X137.189 Y132 E1.352
G1 X136.548 Y133.548 E.05147
G1 X133.548 Y136.548 E.13036
G1 X132 Y137.189 E.05147
G1 X88 Y137.189 E1.352
G1 X86.452 Y136.548 E.05147
G1 X83.452 Y133.548 E.13036
G1 X82.811 Y132 E.05147
G1 X82.811 Y88 E1.352
G1 X83.452 Y86.452 E.05147
G1 X84.896 Y85.009 E.06272
; printing object Validation_Matrix_v2.200701.stl id:97293007126336 copy 0
G1 E-.2 F1800
;WIPE_START
G1 F3000
G1 X85.603 Y84.302 E-.6
;WIPE_END
G1 Z.6 F9000
G1 X85.787 Y131.674 Z.6
G1 Z.2
M73 P4 R19
G1 E.8 F1800
;TYPE:Inner wall
;WIDTH:0.419999
G1 F900
G1 X85.787 Y88.326 E1.33196
G1 X88.326 Y85.787 E.11033
G1 X131.674 Y85.787 E1.33196
G1 X134.213 Y88.326 E.11033
G1 X134.213 Y131.674 E1.33196
G1 X131.674 Y134.213 E.11033
G1 X88.326 Y134.213 E1.33196
G1 X85.815 Y131.702 E.1091
M73 P5 R19
G1 X85.41 Y131.83 F9000
;TYPE:Outer wall
G1 F900
G1 X85.41 Y88.17 E1.34156
G1 X88.17 Y85.41 E.11993
M73 P5 R18
G1 X131.83 Y85.41 E1.34156
G1 X134.59 Y88.17 E.11993
G1 X134.59 Y131.83 E1.34156
G1 X131.83 Y134.59 E.11993
G1 X88.17 Y134.59 E1.34156
G1 X85.438 Y131.858 E.1187
M73 P6 R18
;WIPE_START
G1 X85.438 Y130.858 E-.8
;WIPE_END
G1 Z.6 F9000
G1 X92.68 Y129.361 Z.6
G1 Z.2
G1 E.8 F1800
;TYPE:Inner wall
G1 F900
G1 X92.685 Y129.427 E.00202
G1 X92.629 Y129.864 E.01355
G1 X92.492 Y130.271 E.0132
G1 X92.281 Y130.637 E.01296
G1 X92.007 Y130.953 E.01287
G1 X91.677 Y131.212 E.01289
G1 X91.299 Y131.405 E.01303
G1 X90.883 Y131.522 E.01327
G1 X90.443 Y131.555 E.01356
G1 X90.006 Y131.499 E.01355
G1 X89.599 Y131.362 E.0132
G1 X89.233 Y131.151 E.01296
G1 X88.917 Y130.877 E.01287
G1 X88.658 Y130.547 E.01289
G1 X88.465 Y130.169 E.01303
G1 X88.348 Y129.753 E.01327
G1 X88.312 Y129.37 E.01183
G1 X88.371 Y128.876 E.01529
G1 X88.508 Y128.469 E.0132
G1 X88.727 Y128.093 E.01335
G1 X89.015 Y127.769 E.01333
G1 X89.463 Y127.452 E.01686
G1 X89.65 Y127.356 E.00647
G1 X89.233 Y127.079 E.0154
G1 X88.922 Y126.742 E.01407
G1 X88.695 Y126.322 E.01469
G1 X88.593 Y125.953 E.01176
G1 X88.565 Y125.563 E.01201
G1 X88.615 Y125.176 E.01199
G1 X88.739 Y124.816 E.0117
G1 X88.931 Y124.486 E.01173
G1 X89.17 Y124.213 E.01114
G1 X89.463 Y123.985 E.01141
G1 X89.697 Y123.839 E.00848
G1 X89.254 Y123.503 E.01708
G1 X88.969 Y123.077 E.01576
G1 X88.823 Y122.482 E.01882
G1 X88.823 Y122.258 E.00688
G1 X88.912 Y121.821 E.01369
G1 X88.997 Y121.617 E.0068
G1 X89.336 Y121.149 E.01774
G1 X89.78 Y120.849 E.01649
G1 X89.456 Y120.607 E.01243
G1 X89.167 Y120.159 E.01639
G1 X89.062 Y119.62 E.01688
G1 X89.142 Y119.169 E.01408
G1 X89.248 Y118.934 E.0079
G1 X89.55 Y118.546 E.01513
G1 X89.836 Y118.353 E.01058
G1 X89.509 Y118.025 E.01424
G1 X89.334 Y117.593 E.01433
G1 X89.364 Y117.072 E.01603
G1 X89.417 Y116.883 E.00603
G1 X89.779 Y116.433 E.01773
G1 X89.861 Y116.384 E.00294
G1 X89.632 Y116.18 E.00943
G1 X89.431 Y115.832 E.01234
G1 X89.374 Y115.343 E.01511
G1 X89.425 Y115.11 E.00735
G1 X89.624 Y114.75 E.01263
G1 X89.868 Y114.528 E.01013
G1 X89.537 Y114.146 E.01553
G1 X89.463 Y113.926 E.00713
G1 X89.423 Y113.553 E.01153
G1 X89.546 Y113.146 E.01306
G1 X89.709 Y112.924 E.00845
G1 X89.911 Y112.752 E.00815
G1 X89.68 Y112.541 E.00961
G1 X89.495 Y112.164 E.01292
G1 X89.471 Y111.812 E.01082
G1 X89.587 Y111.424 E.01245
G1 X89.75 Y111.202 E.00846
G1 X89.925 Y111.052 E.0071
G1 X89.658 Y110.774 E.01184
G1 X89.529 Y110.44 E.011
G1 X89.549 Y109.994 E.01371
G1 X89.684 Y109.701 E.00993
G1 X89.919 Y109.441 E.01078
G1 X89.686 Y109.169 E.01101
G1 X89.601 Y108.964 E.00681
G1 X89.572 Y108.596 E.01136
G1 X89.64 Y108.329 E.00846
G1 X89.82 Y108.06 E.00994
G1 X89.955 Y107.95 E.00533
G1 X89.78 Y107.767 E.00778
G1 X89.619 Y107.355 E.01359
G1 X89.644 Y107.066 E.0089
G1 X89.834 Y106.669 E.01353
G1 X89.99 Y106.553 E.00599
G1 X89.843 Y106.426 E.00599
G1 X89.669 Y106.005 E.01399
G1 X89.687 Y105.737 E.00826
G1 X89.852 Y105.377 E.01217
G1 X90.018 Y105.247 E.00648
G1 X89.743 Y104.949 E.01247
G1 X89.671 Y104.755 E.00635
G1 X89.671 Y104.56 E.00601
G1 X89.722 Y104.406 E.00498
G1 X90.1 Y103.986 E.01737
G1 X90.331 Y103.846 E.00829
G1 X90.608 Y103.83 E.00855
G1 X90.841 Y103.935 E.00784
G1 X91.198 Y104.286 E.01538
G1 X91.321 Y104.522 E.00818
G1 X91.317 Y104.806 E.00872
G1 X91.172 Y105.057 E.00893
G1 X90.982 Y105.247 E.00825
G1 X91.192 Y105.446 E.00888
G1 X91.338 Y105.874 E.01389
G1 X91.296 Y106.124 E.00782
G1 X91.156 Y106.426 E.01021
G1 X91.009 Y106.553 E.00597
G1 X91.166 Y106.669 E.00597
G1 X91.374 Y107.126 E.01543
G1 X91.374 Y107.391 E.00813
G1 X91.172 Y107.838 E.01507
G1 X91.045 Y107.95 E.00521
G1 X91.233 Y108.127 E.00792
G1 X91.395 Y108.434 E.01068
G1 X91.433 Y108.795 E.01114
G1 X91.348 Y109.109 E.01
G1 X91.08 Y109.458 E.01352
G1 X91.352 Y109.759 E.01247
G1 X91.478 Y110.138 E.01227
G1 X91.449 Y110.526 E.01196
G1 X91.278 Y110.863 E.01161
G1 X91.075 Y111.052 E.00852
G1 X91.362 Y111.329 E.01226
G1 X91.524 Y111.743 E.01367
G1 X91.512 Y112.137 E.01214
G1 X91.383 Y112.451 E.01043
G1 X91.164 Y112.699 E.01016
G1 X91.09 Y112.752 E.0028
G1 X91.334 Y112.968 E.01002
G1 X91.485 Y113.22 E.00902
G1 X91.576 Y113.535 E.01009
G1 X91.558 Y113.904 E.01134
G1 X91.305 Y114.378 E.01652
G1 X91.124 Y114.532 E.00729
G1 X91.406 Y114.783 E.01161
G1 X91.612 Y115.223 E.01493
G1 X91.613 Y115.69 E.01434
G1 X91.397 Y116.133 E.01515
G1 X91.227 Y116.322 E.00781
G1 X91.139 Y116.384 E.00329
G1 X91.281 Y116.495 E.00554
G1 X91.601 Y116.927 E.01651
G1 X91.672 Y117.439 E.01588
G1 X91.631 Y117.713 E.00851
G1 X91.491 Y118.025 E.01051
G1 X91.164 Y118.353 E.01423
G1 X91.538 Y118.626 E.01422
G1 X91.831 Y119.075 E.01647
G1 X91.935 Y119.566 E.01543
G1 X91.858 Y120.071 E.01569
G1 X91.762 Y120.29 E.00735
G1 X91.544 Y120.607 E.01183
G1 X91.253 Y120.867 E.01198
G1 X91.664 Y121.149 E.01533
G1 X92.003 Y121.617 E.01774
G1 X92.088 Y121.821 E.0068
G1 X92.186 Y122.329 E.0159
G1 X92.088 Y122.919 E.01836
G1 X92.003 Y123.123 E.0068
G1 X91.636 Y123.614 E.01883
G1 X91.304 Y123.859 E.01267
G1 X91.627 Y124.046 E.01148
G1 X91.906 Y124.29 E.0114
G1 X92.135 Y124.583 E.01141
G1 X92.304 Y124.918 E.01155
G1 X92.407 Y125.287 E.01176
G1 X92.435 Y125.677 E.01201
G1 X92.384 Y126.064 E.01199
G1 X92.261 Y126.424 E.0117
G1 X92.074 Y126.747 E.01148
G1 X91.767 Y127.079 E.01389
G1 X91.349 Y127.356 E.0154
G1 X91.83 Y127.641 E.01716
G1 X92.083 Y127.863 E.01035
G1 X92.342 Y128.193 E.01289
G1 X92.535 Y128.571 E.01303
G1 X92.652 Y128.986 E.01327
G1 X92.677 Y129.321 E.01032
G1 X92.309 Y129.394 F9000
;TYPE:Outer wall
G1 F900
G1 X92.269 Y129.752 E.01108
G1 X92.16 Y130.091 E.01093
G1 X91.99 Y130.397 E.01074
G1 X91.767 Y130.662 E.01066
G1 X91.497 Y130.881 E.01067
G1 X91.187 Y131.045 E.01077
G1 X90.845 Y131.147 E.01096
G1 X90.481 Y131.18 E.01125
G1 X90.117 Y131.139 E.01124
G1 X89.779 Y131.03 E.01093
G1 X89.473 Y130.86 E.01074
G1 X89.207 Y130.637 E.01066
G1 X88.989 Y130.367 E.01067
G1 X88.825 Y130.057 E.01077
G1 X88.723 Y129.715 E.01096
G1 X88.689 Y129.37 E.01067
G1 X88.731 Y128.987 E.01182
G1 X88.84 Y128.649 E.01093
G1 X89.018 Y128.333 E.01113
G1 X89.255 Y128.06 E.01112
G1 X89.643 Y127.783 E.01463
G1 X89.905 Y127.669 E.00879
;WIDTH:0.420832
G1 X90.205 Y127.588 E.00957
;WIDTH:0.422258
G1 X90.519 Y127.559 E.00975
G1 X90.882 Y127.601 E.01131
;WIDTH:0.419999
G1 X91.357 Y127.783 E.01563
G1 X91.767 Y128.077 E.0155
G1 X92.011 Y128.373 E.01177
G1 X92.175 Y128.683 E.01077
G1 X92.277 Y129.024 E.01096
G1 X92.306 Y129.354 E.01018
;WIPE_START
G1 X92.269 Y129.752 E-.31985
G1 X92.16 Y130.091 E-.28467
G1 X92.041 Y130.305 E-.19548
;WIPE_END
G1 Z.6 F9000
G1 X90.505 Y124.066 Z.6
G1 Z.2
G1 E.8 F1800
;WIDTH:0.422041
G1 F900
G1 X90.832 Y124.095 E.01015
;WIDTH:0.420218
G1 X91.124 Y124.19 E.00943
;WIDTH:0.419999
G1 X91.387 Y124.337 E.00926
G1 X91.616 Y124.53 E.00919
G1 X91.803 Y124.763 E.00919
G1 X91.944 Y125.03 E.00928
G1 X92.032 Y125.325 E.00945
G1 X92.06 Y125.639 E.00969
G1 X92.024 Y125.952 E.00968
G1 X91.93 Y126.244 E.00943
G1 X91.783 Y126.507 E.00926
G1 X91.527 Y126.788 E.01168
G1 X91.124 Y127.05 E.01477
;WIDTH:0.420661
G1 X90.795 Y127.152 E.01059
;WIDTH:0.422759
G1 X90.481 Y127.181 E.00977
G1 X90.157 Y127.141 E.01011
;WIDTH:0.420166
G1 X89.779 Y126.997 E.01242
;WIDTH:0.419999
G1 X89.384 Y126.71 E.015
G1 X89.197 Y126.477 E.00919
G1 X89.056 Y126.21 E.00928
G1 X88.968 Y125.915 E.00945
G1 X88.94 Y125.601 E.00969
G1 X88.976 Y125.288 E.00968
G1 X89.07 Y124.996 E.00943
G1 X89.222 Y124.726 E.00951
G1 X89.41 Y124.504 E.00893
G1 X89.643 Y124.317 E.00919
G1 X89.929 Y124.171 E.00986
;WIDTH:0.422041
G1 X90.462 Y124.062 E.01682
G1 X90.465 Y124.062 E.00008
;WIPE_START
G1 X90.832 Y124.095 E-.29478
G1 X91.124 Y124.19 E-.24544
G1 X91.387 Y124.337 E-.24105
G1 X91.405 Y124.352 E-.01873
;WIPE_END
G1 Z.6 F9000
G1 X91.7 Y121.873 Z.6
G1 Z.2
G1 E.8 F1800
;WIDTH:0.419999
G1 F900
G1 X91.807 Y122.333 E.01451
G1 X91.719 Y122.844 E.01595
G1 X91.45 Y123.269 E.01545
G1 X91.042 Y123.56 E.01539
;WIDTH:0.422498
G1 X90.537 Y123.678 E.01603
G1 X90.026 Y123.589 E.01607
;WIDTH:0.419999
G1 X89.601 Y123.32 E.01545
G1 X89.31 Y122.912 E.01539
G1 X89.193 Y122.407 E.01592
G1 X89.281 Y121.896 E.01595
G1 X89.55 Y121.471 E.01545
G1 X89.958 Y121.18 E.0154
;WIDTH:0.422041
G1 X90.462 Y121.062 E.016
G1 X90.974 Y121.151 E.01604
;WIDTH:0.419999
G1 X91.399 Y121.42 E.01545
G1 X91.69 Y121.828 E.01539
G1 X91.691 Y121.834 E.00018
;WIPE_START
G1 X91.807 Y122.333 E-.40973
G1 X91.724 Y122.813 E-.39027
;WIPE_END
G1 Z.6 F9000
G1 X90.759 Y120.628 Z.6
G1 Z.2
G1 E.8 F1800
;WIDTH:0.422041
G1 F900
G1 X90.462 Y120.678 E.00928
G1 X90.055 Y120.58 E.01294
;WIDTH:0.419999
G1 X89.741 Y120.36 E.01178
G1 X89.512 Y119.997 E.01321
G1 X89.443 Y119.583 E.01289
G1 X89.56 Y119.145 E.01392
G1 X89.778 Y118.847 E.01134
G1 X90.124 Y118.631 E.01254
;WIDTH:0.427651
G1 X90.575 Y118.567 E.01428
G1 X90.945 Y118.66 E.01196
;WIDTH:0.419999
G1 X91.273 Y118.898 E.01245
G1 X91.488 Y119.243 E.01251
G1 X91.557 Y119.657 E.01289
G1 X91.45 Y120.08 E.01339
G1 X91.222 Y120.393 E.0119
;WIDTH:0.42099
G1 X90.877 Y120.609 E.01255
;WIDTH:0.422041
G1 X90.798 Y120.622 E.00246
;WIPE_START
G1 X90.462 Y120.678 E-.27227
G1 X90.055 Y120.58 E-.3351
G1 X89.858 Y120.442 E-.19263
;WIPE_END
G1 Z.6 F9000
G1 X90.397 Y116.579 Z.6
G1 Z.2
G1 E.8 F1800
;WIDTH:0.427009
G1 F900
G1 X90.692 Y116.593 E.00926
;WIDTH:0.42473
G1 X90.992 Y116.737 E.01033
;WIDTH:0.419999
G1 X91.259 Y117.103 E.01395
G1 X91.297 Y117.48 E.01164
G1 X91.174 Y117.82 E.0111
G1 X90.903 Y118.066 E.01126
;WIDTH:0.422038
G1 X90.463 Y118.178 E.01403
G1 X90.019 Y118.019 E.01456
;WIDTH:0.419999
G1 X89.81 Y117.79 E.00952
G1 X89.703 Y117.476 E.0102
G1 X89.757 Y117.046 E.01332
G1 X90.028 Y116.716 E.01312
;WIDTH:0.427009
G1 X90.359 Y116.589 E.01109
;WIPE_START
G1 X90.692 Y116.593 E-.26674
G1 X90.992 Y116.737 E-.26572
G1 X91.189 Y117.007 E-.26754
;WIPE_END
G1 Z.6 F9000
G1 X90.405 Y114.73 Z.6
G1 Z.2
M73 P7 R18
G1 E.8 F1800
;WIDTH:0.440746
G1 F900
G1 X90.731 Y114.732 E.01055
G1 X90.941 Y114.871 E.00819
;WIDTH:0.419999
G1 X91.14 Y115.064 E.00852
G1 X91.248 Y115.343 E.00919
G1 X91.225 Y115.664 E.00986
G1 X91.01 Y116.014 E.01263
;WIDTH:0.42478
G1 X90.742 Y116.176 E.00974
;WIDTH:0.428543
G1 X90.389 Y116.194 E.01111
G1 X90.157 Y116.132 E.00754
;WIDTH:0.420226
G1 X89.943 Y115.966 E.00833
;WIDTH:0.419999
G1 X89.789 Y115.701 E.00943
G1 X89.768 Y115.265 E.0134
G1 X89.895 Y115.012 E.00872
;WIDTH:0.423276
G1 X90.119 Y114.807 E.0094
;WIDTH:0.431662
G1 X90.336 Y114.729 E.0073
;WIDTH:0.440746
G1 X90.365 Y114.73 E.00095
G1 X90.253 Y114.309 F9000
;WIDTH:0.438581
G1 F900
G1 X90.211 Y114.307 E.00137
;WIDTH:0.425391
G1 X90.06 Y114.207 E.00563
;WIDTH:0.419999
G1 X89.838 Y113.882 E.01211
G1 X89.815 Y113.479 E.01238
G1 X89.934 Y113.233 E.00839
;WIDTH:0.421045
G1 X90.16 Y113.04 E.00917
;WIDTH:0.430292
G1 X90.404 Y112.951 E.00821
G1 X90.679 Y112.969 E.00869
;WIDTH:0.426343
G1 X90.926 Y113.092 E.00861
;WIDTH:0.419999
G1 X91.106 Y113.293 E.00829
G1 X91.199 Y113.553 E.00851
G1 X91.175 Y113.853 E.00924
G1 X90.974 Y114.176 E.01169
;WIDTH:0.438581
G1 X90.7 Y114.336 E.01023
G1 X90.293 Y114.312 E.01315
;WIPE_START
G1 X90.211 Y114.307 E-.06606
G1 X90.06 Y114.207 E-.14442
G1 X89.838 Y113.882 E-.31534
G1 X89.819 Y113.539 E-.27418
;WIPE_END
G1 Z.6 F9000
G1 X90.673 Y111.27 Z.6
G1 Z.2
G1 E.8 F1800
;WIDTH:0.425695
G1 F900
G1 X90.897 Y111.382 E.00781
;WIDTH:0.419999
G1 X91.087 Y111.622 E.00941
G1 X91.15 Y111.793 E.00559
G1 X91.137 Y112.075 E.00868
G1 X91.025 Y112.305 E.00784
;WIDTH:0.421343
G1 X90.837 Y112.473 E.00778
;WIDTH:0.430591
G1 X90.595 Y112.564 E.00818
G1 X90.331 Y112.547 E.00835
;WIDTH:0.42616
G1 X90.072 Y112.402 E.00925
;WIDTH:0.419999
G1 X89.934 Y112.244 E.00644
G1 X89.848 Y112.002 E.0079
G1 X89.863 Y111.739 E.00808
G1 X90.016 Y111.469 E.00955
;WIDTH:0.421683
G1 X90.19 Y111.329 E.00688
;WIDTH:0.429566
G1 X90.415 Y111.251 E.0075
G1 X90.634 Y111.266 E.00692
G1 X90.579 Y110.864 F9000
;WIDTH:0.429573
G1 F900
G1 X90.331 Y110.843 E.00785
;WIDTH:0.425692
G1 X90.103 Y110.713 E.0082
;WIDTH:0.419999
G1 X89.976 Y110.567 E.00596
G1 X89.898 Y110.342 E.0073
G1 X89.912 Y110.099 E.00748
G1 X89.976 Y109.948 E.00504
;WIDTH:0.420964
G1 X90.19 Y109.733 E.00936
;WIDTH:0.427836
G1 X90.424 Y109.651 E.00776
G1 X90.659 Y109.668 E.00738
;WIDTH:0.423797
G1 X90.869 Y109.774 E.00732
;WIDTH:0.419999
G1 X91.024 Y109.948 E.00716
G1 X91.102 Y110.172 E.0073
G1 X91.066 Y110.467 E.00914
G1 X90.983 Y110.627 E.00551
;WIDTH:0.42169
G1 X90.809 Y110.782 E.0072
;WIDTH:0.429573
G1 X90.617 Y110.853 E.00645
;WIPE_START
G1 X90.331 Y110.843 E-.22905
G1 X90.103 Y110.713 E-.2103
G1 X89.976 Y110.567 E-.15511
G1 X89.898 Y110.342 E-.19012
G1 X89.899 Y110.323 E-.01542
;WIPE_END
G1 Z.6 F9000
G1 X90.652 Y109.243 Z.6
G1 Z.2
G1 E.8 F1800
;WIDTH:0.427661
G1 F900
G1 X90.453 Y109.268 E.00629
G1 X90.242 Y109.204 E.00691
;WIDTH:0.420964
G1 X90.079 Y109.077 E.00636
;WIDTH:0.419999
G1 X89.97 Y108.89 E.00666
G1 X89.941 Y108.67 E.00681
G1 X90.008 Y108.443 E.00728
G1 X90.13 Y108.287 E.00609
;WIDTH:0.420314
G1 X90.388 Y108.164 E.00878
;WIDTH:0.425276
G1 X90.613 Y108.161 E.00701
