;FLAVOR:Marlin
;TIME:1189
;Filament used: 0.687905m
;Layer height: 0.15
;MINX:96.4
;MINY:76.4
;MINZ:0.2
;MAXX:153.6
;MAXY:133.6
;MAXZ:1.4
;TARGET_MACHINE.NAME:Prusa i3 Mk3/Mk3s
;Generated with Cura_SteamEngine 5.10.2
G21 ; set units to millimeters
G90 ; use absolute positioning
M82 ; absolute extrusion mode
M104 S200 ; set extruder temp
M140 S60 ; set bed temp
M190 S60 ; wait for bed temp
M109 S200 ; wait for extruder temp
G28 W ; home all without mesh bed level
G80 ; mesh bed leveling
G92 E0.0 ; reset extruder distance position
G1 Y-3.0 F1000.0 ; go outside print area
G1 X60.0 E9.0 F1000.0 ; intro line
G1 X100.0 E21.5 F1000.0 ; intro line
G92 E0.0 ; reset extruder distance position
M82 ;absolute extrusion mode
G92 E0
G92 E0
G1 F2100 E-0.8
;LAYER_COUNT:9
;LAYER:0
M107
G0 F3600 X97.182 Y80.751 Z0.2
;TYPE:SKIRT
G1 F2100 E0
G1 F1800 X97.786 Y80.122 E0.029
G1 X100.013 Y77.896 E0.13373
G1 X100.776 Y77.164 E0.1689
G1 X101.423 Y76.777 E0.19397
G1 X101.953 Y76.568 E0.21292
G1 X102.609 Y76.418 E0.23531
G1 X103.515 Y76.4 E0.26545
G1 X146.345 Y76.4 E1.68998
G1 X147.404 Y76.415 E1.7252
G1 X148.085 Y76.58 E1.74851
G1 X148.668 Y76.823 E1.76952
G1 X149.243 Y77.178 E1.79199
G1 X149.829 Y77.737 E1.81893
G1 X152.102 Y80.011 E1.92587
G1 X152.574 Y80.497 E1.9484
G1 X152.953 Y80.962 E1.96835
G1 X153.238 Y81.453 E1.98723
G1 X153.443 Y81.984 E2.00617
G1 X153.583 Y82.616 E2.0277
G1 X153.6 Y83.516 E2.05764
G1 X153.6 Y126.345 E3.48213
G1 X153.584 Y127.405 E3.51739
G1 X153.42 Y128.085 E3.54066
G1 X153.177 Y128.668 E3.56167
G1 X152.818 Y129.249 E3.58438
G1 X152.214 Y129.878 E3.61339
G1 X149.999 Y132.091 E3.71753
G1 X149.238 Y132.829 E3.75278
G1 X148.577 Y133.223 E3.77838
G1 X148.047 Y133.432 E3.79733
G1 X147.391 Y133.582 E3.81971
G1 X146.485 Y133.6 E3.84985
G1 X103.655 Y133.6 E5.27438
G1 X102.596 Y133.585 E5.30961
G1 X101.915 Y133.42 E5.33291
G1 X101.332 Y133.177 E5.35392
G1 X100.751 Y132.818 E5.37663
G1 X100.112 Y132.204 E5.40611
G1 X97.896 Y129.987 E5.51037
G1 X97.164 Y129.224 E5.54553
G1 X96.777 Y128.577 E5.57061
G1 X96.568 Y128.047 E5.58956
G1 X96.418 Y127.391 E5.61194
G1 X96.4 Y126.485 E5.64208
G1 X96.4 Y83.655 E7.06661
G1 X96.416 Y82.595 E7.10187
G1 X96.58 Y81.915 E7.12514
G1 X96.823 Y81.332 E7.14614
G1 X97.182 Y80.751 E7.16886
G0 F3600 X97.498 Y81
G1 F1800 X98.069 Y80.405 E7.19629
G1 X100.29 Y78.185 E7.30073
G1 X101.021 Y77.484 E7.33442
G1 X101.573 Y77.148 E7.35591
G1 X102.042 Y76.958 E7.37274
G1 X102.658 Y76.817 E7.39376
G1 X103.523 Y76.8 E7.42254
G1 X146.339 Y76.8 E8.8466
G1 X147.353 Y76.814 E8.88033
G1 X147.991 Y76.969 E8.90217
G1 X148.458 Y77.163 E8.91899
G1 X148.997 Y77.496 E8.94006
G1 X149.546 Y78.02 E8.9653
G1 X151.815 Y80.29 E9.07205
G1 X152.287 Y80.776 E9.09459
G1 X152.609 Y81.165 E9.11138
G1 X152.866 Y81.6 E9.12819
G1 X153.052 Y82.071 E9.14503
G1 X153.184 Y82.666 E9.1653
G1 X153.2 Y83.523 E9.19381
G1 X153.2 Y126.339 E10.61788
G1 X153.185 Y127.354 E10.65164
G1 X153.031 Y127.991 E10.67344
G1 X152.837 Y128.458 E10.69025
G1 X152.502 Y129 E10.71145
G1 X151.931 Y129.595 E10.73888
G1 X149.721 Y131.804 E10.8428
G1 X148.994 Y132.509 E10.87649
G1 X148.427 Y132.852 E10.89853
G1 X147.958 Y133.042 E10.91536
G1 X147.342 Y133.183 E10.93638
G1 X146.477 Y133.2 E10.96515
G1 X103.661 Y133.2 E12.38922
G1 X102.647 Y133.186 E12.42295
G1 X102.009 Y133.031 E12.44478
G1 X101.542 Y132.837 E12.4616
G1 X101 Y132.502 E12.48279
G1 X100.395 Y131.921 E12.51069
G1 X98.185 Y129.71 E12.61467
G1 X97.484 Y128.979 E12.64835
G1 X97.148 Y128.427 E12.66985
G1 X96.958 Y127.958 E12.68668
G1 X96.817 Y127.342 E12.7077
G1 X96.8 Y126.477 E12.73647
G1 X96.8 Y83.661 E14.16054
G1 X96.815 Y82.646 E14.1943
G1 X96.969 Y82.009 E14.2161
G1 X97.163 Y81.542 E14.23292
G1 X97.498 Y81 E14.25411
G1 F2100 E13.45411
;MESH:Validation_Matrix_v2.200701.stl
G0 F3600 X99.755 Y82.447
G0 X100.528 Y83.219
G0 X104.21 Y108.459
G0 X104.509 Y108.552
;TYPE:WALL-INNER
G1 F2100 E14.25411
G1 F1800 X104.616 Y108.186 E14.26679
G1 X104.747 Y108 E14.27436
G1 F1782.2 X105.05 Y107.753 E14.28749
G1 X104.752 Y107.465 E14.30141
G1 F1800 X104.624 Y107.277 E14.30898
G1 X104.556 Y107.008 E14.31821
G1 X104.56 Y106.783 E14.32569
G1 X104.63 Y106.516 E14.33487
G1 X104.931 Y106.143 E14.35081
G1 F1777.8 X105.067 Y106.043 E14.3565
G1 X104.819 Y105.84 E14.36729
G1 F1800 X104.682 Y105.612 E14.37614
G1 X104.604 Y105.161 E14.39136
G1 X104.665 Y104.93 E14.39931
G1 X104.883 Y104.605 E14.41232
G1 X105.108 Y104.455 E14.42132
G1 X104.882 Y104.29 E14.43062
G1 X104.677 Y103.891 E14.44554
G1 X104.648 Y103.687 E14.4524
G1 X104.685 Y103.494 E14.45893
G1 X104.847 Y103.167 E14.47107
G1 F1791 X105.116 Y102.957 E14.48248
G1 X104.859 Y102.734 E14.49385
G1 F1800 X104.708 Y102.36 E14.50727
G1 X104.727 Y102.058 E14.51733
G1 X104.79 Y101.887 E14.52339
G1 X105.106 Y101.56 E14.53852
G1 X105.325 Y101.479 E14.54628
G1 X105.654 Y101.477 E14.55723
G1 X105.866 Y101.546 E14.56464
G1 X106.151 Y101.798 E14.57729
G1 X106.237 Y101.941 E14.58284
G1 X106.284 Y102.149 E14.58994
G1 X106.281 Y102.399 E14.59825
G1 X106.198 Y102.643 E14.60682
G1 F1791 X105.882 Y102.959 E14.62176
G1 X106.106 Y103.113 E14.63085
G1 F1800 X106.322 Y103.528 E14.64641
G1 X106.344 Y103.78 E14.65482
G1 X106.263 Y104.076 E14.66503
G1 X106.153 Y104.229 E14.6713
G1 X105.881 Y104.461 E14.68319
G1 X106.158 Y104.653 E14.6944
G1 X106.272 Y104.802 E14.70064
G1 X106.391 Y105.277 E14.71692
G1 X106.345 Y105.55 E14.72613
G1 X106.113 Y105.906 E14.74027
G1 X105.907 Y106.054 E14.7487
G1 X106.121 Y106.191 E14.75715
G1 X106.291 Y106.38 E14.76561
G1 X106.439 Y106.794 E14.78023
G1 X106.448 Y106.936 E14.78496
G1 X106.343 Y107.336 E14.79872
G1 X106.034 Y107.678 E14.81405
G1 X105.882 Y107.753 E14.81969
G1 X106.037 Y107.823 E14.82534
G1 X106.349 Y108.127 E14.83983
G1 X106.459 Y108.377 E14.84892
G1 X106.492 Y108.77 E14.86203
G1 X106.461 Y108.928 E14.86739
G1 X106.28 Y109.275 E14.88041
G1 X105.984 Y109.53 E14.8934
G1 X106.173 Y109.659 E14.90101
G1 X106.404 Y109.928 E14.9128
G1 X106.531 Y110.31 E14.92619
G1 X106.548 Y110.49 E14.93221
G1 X106.495 Y110.777 E14.94191
G1 X106.266 Y111.175 E14.95719
G1 X105.975 Y111.384 E14.9691
G1 X106.278 Y111.592 E14.98133
G1 X106.521 Y111.957 E14.99591
G1 X106.599 Y112.321 E15.00829
G1 X106.529 Y112.755 E15.02291
G1 X106.317 Y113.101 E15.03641
G1 X105.944 Y113.356 E15.05144
G1 X106.341 Y113.571 E15.06645
G1 X106.641 Y113.902 E15.08131
G1 X106.831 Y114.431 E15.10001
G1 X106.805 Y114.949 E15.11726
G1 X106.629 Y115.355 E15.13198
G1 X106.264 Y115.73 E15.14938
G1 X105.991 Y115.86 E15.15944
G1 X106.381 Y116.035 E15.17366
G1 X106.787 Y116.42 E15.19226
G1 X107.05 Y116.979 E15.21281
G1 X107.079 Y117.129 E15.21789
G1 X107.053 Y117.748 E15.2385
G1 X106.806 Y118.292 E15.25837
G1 X106.335 Y118.729 E15.27974
G1 X106.021 Y118.863 E15.2911
G1 X106.281 Y118.946 E15.30017
G1 X106.799 Y119.293 E15.32091
G1 X107.169 Y119.826 E15.34249
G1 X107.231 Y119.972 E15.34777
G1 X107.359 Y120.627 E15.36996
G1 X107.211 Y121.345 E15.39435
G1 X106.806 Y121.936 E15.41818
G1 X106.255 Y122.309 E15.44031
G1 X106.101 Y122.362 E15.44572
G1 X106.339 Y122.444 E15.4541
G1 X106.702 Y122.648 E15.46795
G1 X106.978 Y122.877 E15.47987
G1 X107.249 Y123.206 E15.49405
G1 X107.441 Y123.569 E15.50771
G1 X107.558 Y123.95 E15.52097
G1 X107.594 Y124.312 E15.53306
G1 X107.541 Y124.852 E15.55111
G1 X107.409 Y125.237 E15.56465
G1 X107.273 Y125.489 E15.57417
G1 X107.024 Y125.809 E15.58766
G1 X106.628 Y126.137 E15.60476
G1 X106.257 Y126.327 E15.61862
G1 X105.908 Y126.427 E15.6307
G1 X105.5 Y126.468 E15.64434
G1 X105.019 Y126.411 E15.66045
G1 X104.646 Y126.291 E15.67348
G1 X104.279 Y126.076 E15.68763
G1 X104.011 Y125.853 E15.69922
G1 X103.788 Y125.581 E15.71092
G1 X103.593 Y125.251 E15.72367
G1 X103.454 Y124.85 E15.73779
G1 X103.402 Y124.423 E15.75209
G1 X103.455 Y123.884 E15.77011
G1 X103.591 Y123.492 E15.78391
G1 X103.761 Y123.192 E15.79538
G1 X104.027 Y122.868 E15.80932
G1 X104.329 Y122.623 E15.82225
G1 X104.896 Y122.363 E15.843
G1 X104.42 Y122.118 E15.86081
G1 X103.96 Y121.672 E15.88212
G1 X103.672 Y120.997 E15.90652
G1 X103.672 Y120.368 E15.92744
G1 X103.718 Y120.135 E15.93534
G1 X103.992 Y119.543 E15.95704
G1 X104.438 Y119.091 E15.97816
G1 X104.968 Y118.86 E15.99739
G1 X104.603 Y118.694 E16.01073
G1 X104.133 Y118.2 E16.03341
G1 X103.928 Y117.672 E16.05224
G1 X103.92 Y117.168 E16.06901
G1 X103.964 Y116.939 E16.07677
G1 X104.209 Y116.42 E16.09585
G1 X104.615 Y116.035 E16.11446
G1 X105.005 Y115.86 E16.12868
G1 X104.732 Y115.73 E16.13874
G1 X104.367 Y115.355 E16.15614
G1 X104.172 Y114.872 E16.17347
G1 X104.164 Y114.468 E16.18691
G1 X104.21 Y114.236 E16.19477
G1 X104.367 Y113.881 E16.20768
G1 X104.752 Y113.493 E16.22586
G1 F1786.6 X105.016 Y113.362 E16.23574
G1 X104.867 Y113.273 E16.24156
G1 F1800 X104.563 Y112.946 E16.25641
G1 X104.44 Y112.668 E16.26652
G1 X104.408 Y112.472 E16.27312
G1 X104.47 Y111.972 E16.28988
G1 X104.718 Y111.592 E16.30497
G1 X105.021 Y111.384 E16.3172
G1 X104.73 Y111.175 E16.32911
G1 X104.506 Y110.797 E16.34373
G1 X104.448 Y110.456 E16.35523
G1 X104.539 Y110.027 E16.36982
G1 X104.88 Y109.606 E16.38784
G1 F1795.5 X105.013 Y109.528 E16.39298
G1 X104.77 Y109.338 E16.40326
G1 F1800 X104.551 Y108.966 E16.41762
G1 X104.509 Y108.552 E16.43146
G0 F3600 X104.21 Y108.46
G0 X104.418 Y102.338
G0 X105.071 Y101.227
G0 X105.929 Y101.227
G0 X146.585 Y128.999
G0 X146.707 Y129.3
G1 F1800 X149.3 Y126.707 E16.55343
G1 X149.3 Y83.289 E17.99752
G1 X146.707 Y80.7 E18.11939
G1 X103.289 Y80.697 E19.56348
G1 X100.701 Y83.289 E19.6853
G1 X100.7 Y126.707 E21.12939
G1 X103.289 Y129.3 E21.25126
G1 X146.707 Y129.3 E22.69535
G0 F3600 X146.873 Y129.7
;TYPE:WALL-OUTER
G1 F1800 X149.7 Y126.873 E22.82833
G1 X149.7 Y83.123 E24.28346
G1 X146.873 Y80.3 E24.41634
G1 X103.123 Y80.297 E25.87147
G1 X100.301 Y83.123 E26.0043
G1 X100.3 Y126.873 E27.45943
G1 X103.123 Y129.7 E27.59231
G1 X146.873 Y129.7 E29.04744
G0 F3600 X147.014 Y129.559
G0 X146.585 Y128.999
G0 X106.351 Y126.621
G0 X106.142 Y125.944
G1 F1800 X105.862 Y126.028 E29.05716
G1 X105.5 Y126.068 E29.06928
G1 X105.171 Y126.036 E29.08027
G1 X104.823 Y125.932 E29.09235
G1 X104.562 Y125.787 E29.10228
G1 X104.294 Y125.57 E29.11375
G1 X104.081 Y125.303 E29.12511
G1 X103.924 Y125.016 E29.13599
G1 X103.828 Y124.691 E29.14726
G1 X103.8 Y124.387 E29.15742
G1 X103.828 Y124.045 E29.16883
G1 X103.941 Y123.686 E29.18135
G1 X104.091 Y123.418 E29.19156
G1 X104.299 Y123.161 E29.20256
G1 X104.549 Y122.957 E29.21329
G1 X104.852 Y122.797 E29.22469
G1 F1592.9 X105.527 Y122.618 E29.25093
G1 X106.169 Y122.806 E29.27608
G1 F1800 X106.431 Y122.947 E29.28597
G1 X106.7 Y123.164 E29.29747
G1 X106.913 Y123.423 E29.30862
G1 X107.063 Y123.702 E29.31916
G1 X107.161 Y124.008 E29.32984
G1 X107.196 Y124.387 E29.3425
G1 X107.168 Y124.691 E29.35266
G1 X107.057 Y125.047 E29.36506
G1 X106.921 Y125.299 E29.37458
G1 X106.687 Y125.583 E29.38682
G1 X106.434 Y125.787 E29.39763
G1 X106.142 Y125.944 E29.40866
G0 F3600 X105.951 Y126.001
G0 X106.161 Y126.68
G0 X107.164 Y126.034
G0 X107.668 Y125.284
G0 X107.854 Y124.37
G0 X107.668 Y123.456
G0 X106.69 Y122.337
G0 X106.075 Y121.951
G1 F1690.1 X105.503 Y122.125 E29.42984
G1 X104.913 Y121.947 E29.45167
G1 F1800 X104.673 Y121.808 E29.46089
G1 X104.283 Y121.415 E29.47931
G1 X104.075 Y120.907 E29.49756
G1 X104.072 Y120.326 E29.51689
G1 X104.294 Y119.807 E29.53566
G1 X104.658 Y119.438 E29.5529
G1 F1674.4 X105.297 Y119.127 E29.57831
G1 F1475.4 X105.552 Y119.115 E29.58867
G1 F1572.1 X106.083 Y119.294 E29.61001
G1 F1800 X106.527 Y119.595 E29.62785
G1 X106.839 Y120.058 E29.64642
G1 X106.952 Y120.623 E29.66559
G1 X106.835 Y121.186 E29.68471
G1 X106.522 Y121.647 E29.70324
G1 X106.075 Y121.951 E29.72122
G0 F3600 X105.884 Y122.009
G0 X106.69 Y122.337
G0 X107.074 Y121.283
G0 X107.074 Y119.957
G0 X106.398 Y119.205
G0 X105.7 Y118.591
G1 F1428.6 X105.296 Y118.608 E29.73817
G1 F1565.2 X104.827 Y118.362 E29.75843
G1 F1800 X104.489 Y118.019 E29.77444
G1 X104.322 Y117.603 E29.78935
G1 X104.334 Y117.091 E29.80639
G1 X104.515 Y116.678 E29.82138
G1 X104.831 Y116.371 E29.83604
G1 F1565.2 X105.296 Y116.128 E29.85611
G1 F1384.6 X105.7 Y116.129 E29.87357
G1 F1565.2 X106.165 Y116.371 E29.89362
G1 F1800 X106.505 Y116.713 E29.90966
G1 X106.675 Y117.119 E29.9243
G1 X106.677 Y117.607 E29.94054
G1 X106.5 Y118.032 E29.95585
G1 X106.149 Y118.374 E29.97215
G1 F1621.6 X105.7 Y118.591 E29.99056
G0 F3600 X105.5 Y118.599
G0 X105.5 Y118.86
G0 X106.314 Y118.579
G0 X106.929 Y117.661
G0 X106.569 Y115.817
G0 X105.674 Y115.611
G1 F1384.6 X105.322 Y115.611 E30.00578
G1 F1565.2 X104.964 Y115.404 E30.0216
G1 F1800 X104.706 Y115.143 E30.0338
G1 X104.566 Y114.803 E30.04603
G1 X104.579 Y114.39 E30.05977
G1 X104.706 Y114.093 E30.07052
G1 X104.97 Y113.828 E30.08296
G1 F1578.9 X105.348 Y113.628 E30.09917
G1 F1403.5 X105.648 Y113.628 E30.11197
G1 F1578.9 X106.058 Y113.854 E30.12972
G1 F1800 X106.294 Y114.1 E30.14106
G1 X106.43 Y114.433 E30.15302
G1 X106.429 Y114.807 E30.16546
G1 X106.29 Y115.143 E30.17756
G1 X106.032 Y115.404 E30.18976
G1 F1565.2 X105.674 Y115.611 E30.20558
G0 F3600 X105.474 Y115.611
G0 X105.474 Y115.865
G0 X106.502 Y115.294
G0 X106.509 Y113.353
G0 X105.624 Y113.116
G1 F1403.5 X105.372 Y113.116 E30.21633
G1 F1578.9 X105.099 Y112.947 E30.2285
G1 F1800 X104.91 Y112.748 E30.23763
G1 X104.81 Y112.507 E30.24631
G1 X104.847 Y112.105 E30.25974
G1 X105.002 Y111.874 E30.26899
G1 F1739.1 X105.261 Y111.698 E30.27977
G1 F1568.6 X105.55 Y111.628 E30.29112
G1 F1538.5 X105.738 Y111.69 E30.29882
G1 F1706.2 X105.994 Y111.874 E30.30989
G1 F1800 X106.14 Y112.084 E30.31839
G1 X106.2 Y112.387 E30.32867
G1 X106.15 Y112.628 E30.33685
G1 X106.007 Y112.847 E30.34555
G1 F1578.9 X105.624 Y113.116 E30.3633
G0 F3600 X105.424 Y113.116
G0 X104.512 Y113.321
G0 X104.145 Y112.602
G0 X104.333 Y103.706
G0 X104.418 Y102.338
G0 X105.071 Y101.227
G0 X105.929 Y101.227
G0 X106.53 Y101.828
G0 X106.724 Y106.866
G0 X106.824 Y110.417
G0 X106.467 Y111.384
G0 X105.718 Y111.092
G1 F1545.1 X105.479 Y111.148 E30.37281
G1 F1575.5 X105.28 Y111.084 E30.38075
G1 F1730.8 X105.058 Y110.936 E30.38998
G1 F1800 X104.897 Y110.705 E30.39935
G1 X104.85 Y110.491 E30.40663
G1 X104.902 Y110.195 E30.41663
G1 X105.122 Y109.924 E30.42824
G1 F1629 X105.405 Y109.774 E30.44001
G1 F1487.6 X105.588 Y109.774 E30.44738
G1 F1629 X105.849 Y109.91 E30.45819
G1 F1800 X106.05 Y110.114 E30.46772
G1 X106.148 Y110.441 E30.47907
G1 X106.107 Y110.681 E30.48717
G1 X105.966 Y110.909 E30.49609
G1 F1698.1 X105.718 Y111.092 E30.50695
G0 F3600 X105.523 Y111.137
G0 X105.58 Y111.413
G0 X106.335 Y110.81
G0 X106.43 Y109.523
G0 X105.714 Y109.237
G1 F1558.4 X105.542 Y109.295 E30.51393
G1 F1551.7 X105.286 Y109.238 E30.52404
G1 F1706.2 X105.067 Y109.07 E30.53373
G1 F1800 X104.938 Y108.864 E30.54181
G1 X104.9 Y108.648 E30.54911
G1 X104.981 Y108.35 E30.55938
G1 X105.137 Y108.179 E30.56708
G1 F1582.4 X105.406 Y108.009 E30.57912
G1 F1493.8 X105.694 Y108.064 E30.59087
G1 F1690.1 X106.005 Y108.33 E30.60536
G1 F1800 X106.084 Y108.517 E30.61212
G1 X106.089 Y108.772 E30.6206
G1 X106 Y108.982 E30.62818
G1 F1714.3 X105.714 Y109.237 E30.64157
G0 F3600 X105.542 Y109.295
G0 X105.525 Y109.292
G0 X105.578 Y109.561
G0 X106.648 Y109.031
G0 X106.367 Y107.74
G0 X105.682 Y107.45
G1 F1493.8 X105.519 Y107.511 E30.64854
G1 F1469.4 X105.316 Y107.459 E30.65708
G1 F1651.4 X104.992 Y107.119 E30.67411
G1 F1800 X104.95 Y106.939 E30.68025
G1 X104.986 Y106.704 E30.68816
G1 X105.145 Y106.489 E30.69706
G1 F1585.9 X105.428 Y106.31 E30.7097
G1 F1411.8 X105.528 Y106.308 E30.71394
G1 F1578.9 X105.537 Y106.363 E30.71605
G1 F1800 X105.838 Y106.474 E30.72672
G1 X105.956 Y106.598 E30.73241
G1 X106.043 Y106.855 E30.74144
G1 X106.012 Y107.1 E30.74965
G1 F1690.1 X105.682 Y107.45 E30.76669
G0 F3600 X105.519 Y107.511
G0 X105.494 Y107.505
G0 X104.598 Y107.768
G0 X104.284 Y106.907
G0 X104.333 Y103.706
G0 X104.418 Y102.338
G0 X105.071 Y101.227
G0 X105.929 Y101.227
G0 X106.53 Y101.828
G0 X106.694 Y105.492
G0 X105.753 Y105.686
G1 F1800 X105.478 Y105.745 E30.77605
G1 F1578.9 X105.484 Y105.801 E30.77818
G1 F1411.8 X105.434 Y105.802 E30.7803
G1 F1585.9 X105.107 Y105.563 E30.79559
G1 F1800 X105.004 Y105.184 E30.80866
G1 X105.179 Y104.873 E30.82052
