;FLAVOR:Marlin
;TIME:1039
;Filament used: 0.5669m
;Layer height: 0.15
;MINX:109.015
;MINY:89.422
;MINZ:0.2
;MAXX:140.985
;MAXY:120.578
;MAXZ:6.95
;TARGET_MACHINE.NAME:Prusa i3 Mk3/Mk3s
;Generated with Cura_SteamEngine 5.10.2
G21 ; set units to millimeters
G90 ; use absolute positioning
M82 ; absolute extrusion mode
M104 S200 ; set extruder temp
M140 S60 ; set bed temp
M190 S60 ; wait for bed temp
M109 S200 ; wait for extruder temp
G28 W ; home all without mesh bed level
G80 ; mesh bed leveling
G92 E0.0 ; reset extruder distance position
G1 Y-3.0 F1000.0 ; go outside print area
G1 X60.0 E9.0 F1000.0 ; intro line
G1 X100.0 E21.5 F1000.0 ; intro line
G92 E0.0 ; reset extruder distance position
M82 ;absolute extrusion mode
G92 E0
G92 E0
G1 F2100 E-0.8
;LAYER_COUNT:46
;LAYER:0
M107
G0 F3600 X112.484 Y95.05 Z0.2
;TYPE:SKIRT
G1 F2100 E0
G1 F1800 X112.883 Y94.601 E0.01998
G1 X113.36 Y94.202 E0.04066
G1 X114.038 Y93.722 E0.06829
G1 X115.074 Y93.01 E0.1101
G1 X117.252 Y91.419 E0.19981
G1 X118.415 Y90.542 E0.24826
G1 X119.123 Y90.12 E0.27567
G1 X120.096 Y89.787 E0.30988
G1 X120.723 Y89.594 E0.3317
G1 X121.318 Y89.464 E0.35195
G1 X121.932 Y89.422 E0.37242
G1 X124.08 Y89.467 E0.44388
G1 X126.783 Y89.456 E0.53378
G1 X128.159 Y89.431 E0.57956
G1 X128.923 Y89.483 E0.60503
G1 X130.022 Y89.825 E0.64331
G1 X130.546 Y90.004 E0.66173
G1 X131.122 Y90.256 E0.68264
G1 X131.647 Y90.584 E0.70323
G1 X132.39 Y91.138 E0.73405
G1 X133.165 Y91.733 E0.76655
G1 X135.395 Y93.347 E0.85811
G1 X136.199 Y93.899 E0.89055
G1 X136.789 Y94.325 E0.91475
G1 X137.315 Y94.782 E0.93792
G1 X138.003 Y95.702 E0.97613
G1 X138.385 Y96.251 E0.99838
G1 X138.754 Y96.908 E1.02344
G1 X139.132 Y98.127 E1.06589
G1 X139.441 Y99.169 E1.10204
G1 X140.306 Y101.811 E1.1945
G1 X140.856 Y103.389 E1.25008
G1 X140.977 Y104.368 E1.28289
G1 X140.985 Y105.065 E1.30608
G1 X140.97 Y106.026 E1.33804
G1 X140.82 Y106.724 E1.36179
G1 X140.502 Y107.667 E1.39489
G1 X140.054 Y108.936 E1.43965
G1 X139.211 Y111.564 E1.53144
G1 X138.822 Y112.847 E1.57603
G1 X138.525 Y113.551 E1.60145
G1 X137.951 Y114.367 E1.63463
G1 X137.413 Y115.079 E1.66431
G1 X136.926 Y115.598 E1.68798
G1 X134.675 Y117.167 E1.77924
G1 X132.44 Y118.815 E1.8716
G1 X131.428 Y119.582 E1.91384
G1 X130.646 Y119.958 E1.9427
G1 X129.908 Y120.212 E1.96866
G1 X129.278 Y120.406 E1.99058
G1 X128.682 Y120.536 E2.01087
G1 X128.068 Y120.578 E2.03134
G1 X125.92 Y120.533 E2.1028
G1 X123.217 Y120.544 E2.1927
G1 X121.839 Y120.569 E2.23854
G1 X121.074 Y120.516 E2.26405
G1 X119.977 Y120.175 E2.30226
G1 X119.455 Y119.997 E2.3206
G1 X118.821 Y119.714 E2.34369
G1 X118.353 Y119.416 E2.36215
G1 X117.61 Y118.862 E2.39297
G1 X116.835 Y118.267 E2.42547
G1 X114.597 Y116.647 E2.51736
G1 X113.794 Y116.096 E2.54975
G1 X113.211 Y115.675 E2.57367
G1 X112.687 Y115.22 E2.59675
G1 X111.983 Y114.279 E2.63584
G1 X111.446 Y113.511 E2.66701
G1 X111.163 Y112.821 E2.69181
G1 X110.818 Y111.714 E2.73038
G1 X110.571 Y110.877 E2.7594
G1 X109.729 Y108.286 E2.85001
G1 X109.127 Y106.554 E2.911
G1 X109.023 Y105.632 E2.94186
G1 X109.015 Y104.935 E2.96505
G1 X109.03 Y104.021 E2.99545
G1 X109.211 Y103.197 E3.02351
G1 X109.493 Y102.35 E3.0532
G1 X109.929 Y101.113 E3.09683
G1 X110.764 Y98.519 E3.18746
G1 X111.001 Y97.712 E3.21544
G1 X111.173 Y97.173 E3.23425
G1 X111.456 Y96.476 E3.25927
G1 X112.053 Y95.626 E3.29382
G1 X112.484 Y95.05 E3.31775
G0 F3600 X112.783 Y95.316
G1 F1800 X113.182 Y94.867 E3.33773
G1 X113.591 Y94.529 E3.35537
G1 X114.265 Y94.052 E3.38284
G1 X115.301 Y93.34 E3.42465
G1 X117.488 Y91.742 E3.51474
G1 X118.62 Y90.886 E3.56194
G1 X119.295 Y90.484 E3.58807
G1 X120.215 Y90.169 E3.62041
G1 X120.808 Y89.985 E3.64107
G1 X121.403 Y89.855 E3.66132
G1 X121.924 Y89.822 E3.67869
G1 X124.074 Y89.867 E3.75021
G1 X126.791 Y89.856 E3.84058
G1 X128.132 Y89.83 E3.88519
G1 X128.848 Y89.879 E3.90906
G1 X129.893 Y90.204 E3.94546
G1 X130.417 Y90.383 E3.96387
G1 X130.911 Y90.596 E3.98177
G1 X131.408 Y90.905 E4.00123
G1 X132.146 Y91.455 E4.03185
G1 X132.93 Y92.057 E4.06472
G1 X135.16 Y93.671 E4.15628
G1 X135.966 Y94.224 E4.18879
G1 X136.527 Y94.627 E4.21177
G1 X137.02 Y95.055 E4.23348
G1 X137.675 Y95.931 E4.26986
G1 X138.036 Y96.447 E4.2908
G1 X138.385 Y97.068 E4.3145
G1 X138.749 Y98.241 E4.35535
G1 X139.061 Y99.293 E4.39184
G1 X139.928 Y101.943 E4.48458
G1 X140.464 Y103.482 E4.53878
G1 X140.577 Y104.373 E4.56865
G1 X140.585 Y105.059 E4.59147
G1 X140.571 Y105.982 E4.62218
G1 X140.441 Y106.596 E4.64305
G1 X140.125 Y107.534 E4.67597
G1 X139.677 Y108.803 E4.72073
G1 X138.83 Y111.442 E4.81291
G1 X138.453 Y112.691 E4.85631
G1 X138.171 Y113.359 E4.88042
G1 X137.631 Y114.127 E4.91165
G1 X137.121 Y114.805 E4.93987
G1 X136.661 Y115.295 E4.96222
G1 X134.446 Y116.839 E5.05202
G1 X132.198 Y118.496 E5.14491
G1 X131.218 Y119.239 E5.18581
G1 X130.62 Y119.521 E5.2078
G1 X130.516 Y119.58 E5.21178
G1 X129.789 Y119.83 E5.23735
G1 X129.193 Y120.015 E5.25811
G1 X128.597 Y120.145 E5.2784
G1 X128.076 Y120.178 E5.29576
G1 X125.926 Y120.133 E5.36728
G1 X123.209 Y120.144 E5.45765
G1 X121.867 Y120.17 E5.5023
G1 X121.149 Y120.12 E5.52624
G1 X120.106 Y119.796 E5.56256
G1 X119.584 Y119.618 E5.5809
G1 X119.035 Y119.376 E5.60086
G1 X118.592 Y119.095 E5.61831
G1 X117.854 Y118.545 E5.64892
G1 X117.07 Y117.943 E5.6818
G1 X114.832 Y116.323 E5.77369
G1 X114.027 Y115.771 E5.80615
G1 X113.473 Y115.373 E5.82884
G1 X112.98 Y114.945 E5.85055
G1 X112.311 Y114.05 E5.88772
G1 X111.8 Y113.319 E5.91738
G1 X111.545 Y112.702 E5.93959
G1 X111.202 Y111.601 E5.97794
G1 X110.955 Y110.764 E6.00697
G1 X110.109 Y108.162 E6.09797
G1 X109.519 Y106.463 E6.15779
G1 X109.423 Y105.627 E6.18578
G1 X109.415 Y104.941 E6.2086
G1 X109.429 Y104.069 E6.2376
G1 X109.602 Y103.283 E6.26437
G1 X109.87 Y102.483 E6.29243
G1 X110.31 Y101.236 E6.33642
G1 X111.145 Y98.642 E6.42705
G1 X111.382 Y97.833 E6.45509
G1 X111.544 Y97.323 E6.47289
G1 X111.81 Y96.667 E6.49643
G1 X112.374 Y95.865 E6.52904
G1 X112.783 Y95.316 E6.55181
G0 F3600 X113.104 Y95.555
G1 F1800 X113.438 Y95.175 E6.56864
G1 X113.822 Y94.856 E6.58524
G1 X114.492 Y94.382 E6.61254
G1 X115.528 Y93.67 E6.65435
G1 X117.73 Y92.061 E6.74506
G1 X118.825 Y91.23 E6.79078
G1 X119.467 Y90.848 E6.81563
G1 X120.334 Y90.551 E6.84611
G1 X120.927 Y90.367 E6.86676
G1 X121.429 Y90.254 E6.88387
G1 X121.916 Y90.222 E6.90011
G1 X124.068 Y90.267 E6.9717
G1 X126.799 Y90.256 E7.06253
G1 X128.105 Y90.229 E7.10598
G1 X128.773 Y90.275 E7.12825
G1 X129.764 Y90.583 E7.16276
G1 X130.288 Y90.762 E7.18118
G1 X130.752 Y90.963 E7.198
G1 X131.169 Y91.226 E7.2144
G1 X131.902 Y91.772 E7.2448
G1 X132.695 Y92.381 E7.27805
G1 X134.925 Y93.995 E7.36961
G1 X135.734 Y94.55 E7.40224
G1 X136.265 Y94.929 E7.42394
G1 X136.725 Y95.328 E7.44419
G1 X137.347 Y96.16 E7.47874
G1 X137.708 Y96.676 E7.49969
G1 X138.015 Y97.226 E7.52064
G1 X138.366 Y98.355 E7.55996
G1 X138.681 Y99.417 E7.59681
G1 X139.55 Y102.075 E7.68982
G1 X140.072 Y103.574 E7.74261
G1 X140.177 Y104.378 E7.76958
G1 X140.185 Y105.053 E7.79203
G1 X140.172 Y105.936 E7.8214
G1 X140.062 Y106.468 E7.83947
G1 X139.748 Y107.401 E7.87221
G1 X139.3 Y108.67 E7.91697
G1 X138.449 Y111.32 E8.00955
G1 X138.07 Y112.575 E8.05315
G1 X137.82 Y113.164 E8.07443
G1 X137.311 Y113.887 E8.10384
G1 X136.829 Y114.531 E8.13059
G1 X136.396 Y114.992 E8.15163
G1 X134.217 Y116.511 E8.23998
G1 X131.956 Y118.177 E8.33339
G1 X131.009 Y118.895 E8.37291
G1 X130.382 Y119.191 E8.39598
G1 X130.386 Y119.202 E8.39636
G1 X129.67 Y119.448 E8.42155
G1 X129.074 Y119.633 E8.4423
G1 X128.571 Y119.746 E8.45945
G1 X128.084 Y119.778 E8.47568
G1 X125.932 Y119.733 E8.54727
G1 X123.201 Y119.744 E8.63811
G1 X121.895 Y119.771 E8.68155
G1 X121.224 Y119.724 E8.70393
G1 X120.235 Y119.417 E8.73837
G1 X119.713 Y119.239 E8.75671
G1 X119.249 Y119.038 E8.77353
G1 X118.831 Y118.774 E8.78997
G1 X118.098 Y118.228 E8.82037
G1 X117.305 Y117.619 E8.85363
G1 X115.067 Y115.999 E8.94552
G1 X114.259 Y115.445 E8.9781
G1 X113.735 Y115.071 E8.99952
G1 X113.273 Y114.67 E9.01986
G1 X112.639 Y113.821 E9.05511
G1 X112.154 Y113.127 E9.08327
G1 X111.915 Y112.549 E9.10407
G1 X111.586 Y111.488 E9.14102
G1 X111.339 Y110.651 E9.17004
G1 X110.489 Y108.038 E9.26143
G1 X109.911 Y106.372 E9.32008
G1 X109.823 Y105.622 E9.3452
G1 X109.815 Y104.947 E9.36765
G1 X109.828 Y104.117 E9.39526
G1 X109.993 Y103.369 E9.42074
G1 X110.247 Y102.616 E9.44717
G1 X110.691 Y101.359 E9.49151
G1 X111.526 Y98.765 E9.58215
G1 X111.764 Y97.953 E9.61029
G1 X111.915 Y97.473 E9.62703
G1 X112.164 Y96.858 E9.64909
G1 X112.695 Y96.104 E9.67977
G1 X113.104 Y95.555 E9.70254
G1 F2100 E8.90254
;MESH:azimuth_assembly_v6-ServoAndGearAzimuthGearSmall.stl
G0 F3600 X114.973 Y97.278
G0 X115.857 Y97.92
G0 X123.613 Y106.227
G0 X125.742 Y107.187
G0 X125.667 Y106.883
;TYPE:WALL-INNER
G1 F2100 E9.70254
G1 F1800 X125.272 Y106.979 E9.71606
G1 X124.828 Y106.988 E9.73083
G1 X124.33 Y106.883 E9.74776
G1 X123.846 Y106.634 E9.76586
G1 X123.487 Y106.309 E9.78197
G1 X123.225 Y105.93 E9.79729
G1 X123.069 Y105.518 E9.81194
G1 X123 Y104.997 E9.82942
G1 X123.045 Y104.58 E9.84337
G1 X123.199 Y104.134 E9.85907
G1 X123.489 Y103.685 E9.87684
G1 X123.851 Y103.362 E9.89298
G1 X124.272 Y103.135 E9.90889
G1 X124.728 Y103.017 E9.92455
G1 X125.172 Y103.008 E9.93932
G1 X125.667 Y103.117 E9.95618
G1 X126.149 Y103.362 E9.97417
G1 X126.48 Y103.654 E9.98885
G1 X126.74 Y104.015 E10.00364
G1 X126.931 Y104.478 E10.0203
G1 X127.001 Y104.997 E10.03772
G1 X126.927 Y105.518 E10.05522
G1 X126.767 Y105.934 E10.07005
G1 X126.506 Y106.312 E10.08533
G1 X126.15 Y106.633 E10.10127
G1 X125.667 Y106.883 E10.11936
G0 F3600 X125.742 Y107.187
G0 X126.956 Y112.245
G0 X126.645 Y112.289
G1 F1800 X126.919 Y114.162 E10.18232
G1 X126.994 Y114.389 E10.19027
G1 X127.183 Y114.738 E10.20347
G1 X127.571 Y115.254 E10.22494
G1 X127.974 Y115.66 E10.24397
G1 X128.272 Y115.907 E10.25684
G1 X128.757 Y115.748 E10.27382
G1 X128.9 Y115.17 E10.29362
G1 X128.962 Y114.286 E10.3231
G1 X128.93 Y113.924 E10.33518
G1 X128.825 Y113.528 E10.34881
G1 X127.951 Y111.866 E10.41127
G1 X127.906 Y111.577 E10.42099
G1 X127.973 Y111.351 E10.42883
G1 X128.15 Y111.147 E10.43782
G1 X129.909 Y109.866 E10.51019
G1 X130.118 Y109.788 E10.51761
G1 X130.355 Y109.794 E10.5255
G1 X130.615 Y109.926 E10.53519
G1 X131.93 Y111.278 E10.59792
G1 X132.122 Y111.417 E10.60581
G1 X132.495 Y111.595 E10.61955
G1 X133.118 Y111.787 E10.64124
G1 X133.671 Y111.879 E10.65988
G1 X134.059 Y111.901 E10.67281
G1 X134.358 Y111.488 E10.68977
G1 X134.131 Y110.93 E10.7098
G1 X133.663 Y110.178 E10.73926
G1 X133.435 Y109.916 E10.75081
G1 X133.116 Y109.652 E10.76459
G1 X131.421 Y108.818 E10.82742
G1 X131.216 Y108.611 E10.83711
G1 X131.137 Y108.389 E10.84494
G1 X131.144 Y108.18 E10.8519
G1 X131.84 Y106.037 E10.92684
G1 X131.958 Y105.865 E10.93378
G1 X132.153 Y105.731 E10.94165
G1 X132.441 Y105.686 E10.95134
G1 X134.301 Y106.007 E11.01412
G1 X134.927 Y105.934 E11.03508
G1 X135.558 Y105.718 E11.05727
G1 X136.057 Y105.466 E11.07586
G1 X136.384 Y105.256 E11.08878
G1 X136.384 Y104.745 E11.10578
G1 X135.886 Y104.433 E11.12533
G1 X135.047 Y104.095 E11.15541
G1 X134.708 Y104.017 E11.16698
G1 X134.289 Y103.995 E11.18094
G1 X132.441 Y104.314 E11.24331
G1 X132.153 Y104.269 E11.253
G1 X131.958 Y104.135 E11.26087
G1 X131.84 Y103.963 E11.26781
G1 X131.144 Y101.816 E11.34288
G1 X131.138 Y101.606 E11.34987
G1 X131.216 Y101.384 E11.35769
G1 X131.422 Y101.177 E11.36741
G1 X133.119 Y100.344 E11.43028
G1 X133.585 Y99.915 E11.45135
G1 X133.961 Y99.373 E11.47329
G1 X134.224 Y98.867 E11.49226
G1 X134.362 Y98.516 E11.5048
G1 X134.061 Y98.102 E11.52183
G1 X133.473 Y98.144 E11.54143
G1 X132.629 Y98.348 E11.57031
G1 X132.285 Y98.493 E11.58273
G1 X131.939 Y98.716 E11.59642
G1 X130.618 Y100.07 E11.65934
G1 X130.358 Y100.202 E11.66903
G1 X130.121 Y100.208 E11.67692
G1 X129.925 Y100.137 E11.68385
G1 X128.101 Y98.813 E11.75882
G1 X127.973 Y98.648 E11.76576
G1 X127.906 Y98.423 E11.77357
G1 X127.951 Y98.134 E11.7833
G1 X128.831 Y96.46 E11.8462
G1 X128.959 Y95.785 E11.86905
G1 X128.948 Y95.239 E11.88722
G1 X128.844 Y94.548 E11.91046
G1 X128.765 Y94.254 E11.92058
G1 X128.272 Y94.094 E11.93782
G1 X127.825 Y94.471 E11.95727
G1 X127.274 Y95.119 E11.98556
G1 X127.032 Y95.525 E12.00128
G1 X126.921 Y95.822 E12.01183
G1 X126.636 Y97.773 E12.07741
G1 X126.513 Y97.971 E12.08516
G1 X126.326 Y98.115 E12.09301
G1 X126.126 Y98.173 E12.09994
G1 X123.902 Y98.176 E12.17391
G1 X123.67 Y98.115 E12.18188
G1 X123.483 Y97.971 E12.18973
G1 X123.351 Y97.712 E12.1994
G1 X123.082 Y95.838 E12.26237
G1 X122.813 Y95.257 E12.28367
G1 X122.425 Y94.746 E12.30501
G1 X122.022 Y94.336 E12.32413
G1 X121.725 Y94.092 E12.33691
G1 X121.239 Y94.249 E12.3539
G1 X121.096 Y94.83 E12.3738
G1 X121.034 Y95.71 E12.40314
G1 X121.066 Y96.071 E12.4152
G1 X121.171 Y96.463 E12.42869
G1 X122.078 Y98.189 E12.49354
G1 X122.093 Y98.422 E12.50131
G1 X122.027 Y98.648 E12.50914
G1 X121.849 Y98.854 E12.5182
G1 X120.084 Y100.132 E12.59067
G1 X119.878 Y100.208 E12.59798
G1 X119.641 Y100.201 E12.60586
G1 X119.382 Y100.069 E12.61553
G1 X118.067 Y98.717 E12.67826
G1 X117.504 Y98.401 E12.69973
G1 X116.878 Y98.21 E12.7215
G1 X116.324 Y98.118 E12.74018
G1 X115.938 Y98.095 E12.75304
G1 X115.638 Y98.511 E12.7701
G1 X115.862 Y99.062 E12.78988
G1 X116.332 Y99.817 E12.81946
G1 X116.564 Y100.084 E12.83123
G1 X116.88 Y100.344 E12.84484
G1 X118.633 Y101.206 E12.90981
G1 X118.78 Y101.384 E12.91749
G1 X118.859 Y101.606 E12.92533
G1 X118.852 Y101.816 E12.93231
G1 X118.156 Y103.962 E13.00735
G1 X118.038 Y104.135 E13.01432
G1 X117.844 Y104.268 E13.02214
G1 X117.555 Y104.314 E13.03187
G1 X115.692 Y103.992 E13.09475
G1 X115.452 Y103.992 E13.10274
G1 X115.075 Y104.062 E13.11549
G1 X114.441 Y104.283 E13.13782
G1 X113.936 Y104.532 E13.15655
G1 X113.612 Y104.74 E13.16935
G1 X113.612 Y105.251 E13.18635
G1 X114.11 Y105.563 E13.2059
G1 X114.949 Y105.901 E13.23598
G1 X115.29 Y105.979 E13.24762
G1 X115.709 Y106.005 E13.26158
G1 X117.555 Y105.686 E13.32389
G1 X117.844 Y105.732 E13.33362
G1 X118.038 Y105.865 E13.34144
G1 X118.156 Y106.038 E13.34841
G1 X118.852 Y108.18 E13.42332
G1 X118.858 Y108.389 E13.43027
G1 X118.78 Y108.611 E13.4381
G1 X118.575 Y108.818 E13.44779
G1 X116.878 Y109.657 E13.51075
G1 X116.684 Y109.795 E13.51867
G1 X116.415 Y110.08 E13.53171
G1 X116.035 Y110.624 E13.55378
G1 X115.771 Y111.132 E13.57282
G1 X115.635 Y111.48 E13.58524
G1 X115.937 Y111.894 E13.60229
G1 X116.523 Y111.853 E13.62183
G1 X117.368 Y111.648 E13.65075
G1 X117.717 Y111.502 E13.66333
G1 X118.062 Y111.283 E13.67692
G1 X119.382 Y109.927 E13.73986
G1 X119.641 Y109.795 E13.74953
G1 X119.878 Y109.788 E13.75742
G1 X120.086 Y109.865 E13.76479
G1 X121.899 Y111.187 E13.83942
G1 X122.027 Y111.351 E13.84634
G1 X122.094 Y111.576 E13.85415
G1 X122.049 Y111.867 E13.86394
G1 X121.164 Y113.539 E13.92686
G1 X121.037 Y114.211 E13.94961
G1 X121.047 Y114.756 E13.96774
G1 X121.152 Y115.441 E13.99079
G1 X121.232 Y115.744 E14.00121
G1 X121.725 Y115.906 E14.01847
G1 X122.174 Y115.525 E14.03806
G1 X122.726 Y114.877 E14.06637
G1 X122.967 Y114.473 E14.08202
G1 X123.074 Y114.177 E14.09249
G1 X123.351 Y112.288 E14.15599
G1 X123.484 Y112.028 E14.1657
G1 X123.671 Y111.885 E14.17353
G1 X123.901 Y111.824 E14.18144
G1 X126.095 Y111.824 E14.25442
G1 X126.326 Y111.885 E14.26236
G1 X126.512 Y112.029 E14.27019
G1 X126.645 Y112.289 E14.2799
G0 F3600 X126.255 Y112.379
;TYPE:WALL-OUTER
G1 F1800 X126.528 Y114.254 E14.34292
G1 X126.625 Y114.548 E14.35322
G1 X126.845 Y114.955 E14.36861
G1 X127.268 Y115.516 E14.39197
G1 X127.704 Y115.956 E14.41258
G1 X128.187 Y116.355 E14.43341
G1 X129.092 Y116.06 E14.46507
G1 X129.297 Y115.232 E14.49344
G1 X129.363 Y114.282 E14.52512
G1 X129.326 Y113.855 E14.53937
G1 X129.2 Y113.382 E14.55565
G1 X128.319 Y111.71 E14.61851
G1 X128.304 Y111.613 E14.62178
G1 X128.369 Y111.483 E14.62661
G1 X130.143 Y110.194 E14.69954
G1 X130.265 Y110.184 E14.70362
G1 X130.352 Y110.228 E14.70686
G1 X131.668 Y111.583 E14.76968
G1 X131.918 Y111.763 E14.77993
G1 X132.349 Y111.969 E14.79582
G1 X133.026 Y112.177 E14.81937
G1 X133.627 Y112.277 E14.83964
G1 X134.254 Y112.313 E14.86053
G1 X134.812 Y111.544 E14.89213
G1 X134.489 Y110.748 E14.9207
G1 X133.986 Y109.94 E14.95236
G1 X133.715 Y109.628 E14.9661
